X: 15933
T: Grandpa Tommy's Ceili Band
R: reel
M: 4/4
K: Gmajor
G2 BB d2 BB|GABG ABGE|DEGA BABd|egaf gedB|
G2 BB d2 BB|GABG ABGE|DEGA Bgfg|1 ecAF G3:|2 ecAF G2||
g3 f gfed|B2 dd Bdef|g2 ag gfed|eaag eaaf|
g2 ba gfed|B2 dd gdBd|c2 dB cBAG|1 FDEF G2:|2 ecAF G3||

